assets/images/splash/userIcon.svg

<svg width="35" height="35" viewBox="0 0 35 35" fill="none" xmlns="http://www.w3.org/2000/svg">
<path d="M17.5 0C7.83563 0 0 7.83563 0 17.5C0 27.1644 7.83563 35 17.5 35C27.1644 35 35 27.1644 35 17.5C35 7.83563 27.1644 0 17.5 0ZM28.8065 26.6948C28.4258 25.8402 27.6558 25.2496 26.0779 24.885C22.734 24.1135 19.6204 23.4369 21.1298 20.5902C25.7163 11.9248 22.3446 7.29167 17.5 7.29167C12.5592 7.29167 9.26917 12.1027 13.8702 20.5902C15.4248 23.4544 12.196 24.1296 8.92208 24.885C7.34125 25.2496 6.57708 25.8446 6.19938 26.7021C4.15042 24.1894 2.91667 20.9869 2.91667 17.5C2.91667 9.45875 9.45875 2.91667 17.5 2.91667C25.5413 2.91667 32.0833 9.45875 32.0833 17.5C32.0833 20.984 30.851 24.1835 28.8065 26.6948Z" fill="#4D4D4D"/>
</svg>

<svg xmlns="http://www.w3.org/2000/svg" width="35" height="35" fill="none" xmlns:v="https://vecta.io/nano"><path d="M17.5 0C7.836 0 0 7.836 0 17.5S7.836 35 17.5 35 35 27.164 35 17.5 27.164 0 17.5 0zm11.307 26.695c-.381-.855-1.151-1.445-2.729-1.81-3.344-.772-6.457-1.448-4.948-4.295 4.587-8.665 1.215-13.299-3.63-13.299-4.941 0-8.231 4.811-3.63 13.299 1.555 2.864-1.674 3.539-4.948 4.295-1.581.365-2.345.96-2.723 1.817-2.049-2.513-3.283-5.715-3.283-9.202 0-8.041 6.542-14.583 14.583-14.583S32.083 9.459 32.083 17.5c0 3.484-1.232 6.683-3.277 9.195z" fill="#4d4d4d"/></svg>
